src/actions/22/document-revert-rtl.svg

<svg version="1.1" viewBox="0 0 22 22" xmlns="http://www.w3.org/2000/svg">
 <defs>
  <style id="current-color-scheme" type="text/css">.ColorScheme-Text { color:#363636; }</style>
 </defs>
 <path class="ColorScheme-Text" d="m15.5 13a3.5 3.5 0 0 0-3.5 3.5 3.5 3.5 0 0 0 3.5 3.5 3.5 3.5 0 0 0 3.5-3.5 3.5 3.5 0 0 0-3.5-3.5zm-0.5 1.5 2 2-2 2z" fill="currentColor"/>
 <path d="m7 3c-1.662 0-3 1.338-3 3v7 1l5 5h1 1v-1h-1v-5h-5v-7c0-1.108 0.892-2 2-2h8c1.108 0 2 0.892 2 2v6h1v-6c0-1.662-1.338-3-3-3h-8zm-1.5859 11h3.5859v3.5859l-3.5859-3.5859z" class="ColorScheme-Text" fill="currentColor"/>
</svg>

<svg xmlns="http://www.w3.org/2000/svg" viewBox="0 0 22 22">
    <defs>
        <style id="current-color-scheme" type="text/css">
            .ColorScheme-Text{color:#050505;opacity:.7}
        </style>
    </defs>
    <path fill="currentColor" d="M15.5 13a3.5 3.5 0 0 0-3.5 3.5 3.5 3.5 0 0 0 3.5 3.5 3.5 3.5 0 0 0 3.5-3.5 3.5 3.5 0 0 0-3.5-3.5zm-.5 1.5 2 2-2 2z" class="ColorScheme-Text"/>
    <path fill="currentColor" d="M7 3C5.338 3 4 4.338 4 6v8l5 5h2v-1h-1v-5H5V6c0-1.108.892-2 2-2h8c1.108 0 2 .892 2 2v6h1V6c0-1.662-1.338-3-3-3H7zM5.414 14H9v3.586L5.414 14z" class="ColorScheme-Text"/>
</svg>
